X: 539
T: Abbeyleix, The
R: reel
M: 4/4
K: Ddorian
|:A,|D2ED CA,A,2|FEFG ABcA|d2ed cedc|AcGE EDCA,|
D2ED CA,A,A,|FEFG ABcA|d2ed cedc|AcGE EDD:|
K:D
|:A|d2fd adfd|gAfA eAce|dDcD BDAF|GEFD EA,CE|
d2fd adfd|gAfA eAce|dDcD BDAF|GBAG FDD:|

